resources/svg/upload-cloud-fill.svg

<svg fill="currentColor" viewBox="0 0 24 24" xmlns="http://www.w3.org/2000/svg"><path d="M7 20.9811C3.64378 20.7257 1 17.9216 1 14.5C1 12.1716 2.22429 10.1291 4.06426 8.9812C4.56469 5.044 7.92686 2 12 2C16.0731 2 19.4353 5.044 19.9357 8.9812C21.7757 10.1291 23 12.1716 23 14.5C23 17.9216 20.3562 20.7257 17 20.9811V21H7V20.9811ZM13 13H16L12 8L8 13H11V17H13V13Z"/></svg>

<svg xmlns="http://www.w3.org/2000/svg" viewBox="0 0 24 24" fill="currentColor">
    <g>
        <path fill="none" d="M0 0h24v24H0z"/>
        <path d="M7 20.981a6.5 6.5 0 0 1-2.936-12 8.001 8.001 0 0 1 15.872 0 6.5 6.5 0 0 1-2.936 12V21H7v-.019zM13 13h3l-4-5-4 5h3v4h2v-4z"/>
    </g>
</svg>
